X:355
T: Finnegan's Widow
S: B.Breathnach:"Ceol Rince na hEireann" IV/83 (gan ainm)
Z: B.Black
L: 1/8
N: N.B. No repeats
M: 2/4
Q: 280
R: polka
K: G
A|BB/B/ BB/B/|BB/B/ AG|gg/g/ ge|dB A2|
BB/B/ BB/B/|BB/B/ AG|eg fa|g2 g2 ||
gg/g/ ga|gf ed|gg/g/ ge|dB A2|
gg/g/ ga|gf ed|eg fa|g2 g2 ||
